X: 38591
T: Stone Of Destiny
R: reel
M: 4/4
K: Gmajor
|:BddB G2 Bd|d2 Bd edBA|BddB GA (3Bcd|gedB A3d| 
edBA BG3|BGAG EAGE|DG3 DGBe|1 dBAB G3A:|2 dBAB G3d||
|:edBA BG3|BGAG EGDd|edBA BGGA|BddB A3d| 
edBA BG3|BGAG EAGE|DG3 DGBe|1 dBAB G3d:|2 dBAB G3A||

